X: 277
T: Hunjiang long
L: 1/8
M: 2/4
K: F
d f A e [I:setbarnb 1]| 
d4 | 
G2f3/ f/ | 
g e d c | 
A c G A | 
c4 | 
d f d c | 
d/ c/A2A/ G/ | 
A> GA2 | 
d f F3/ G/ | 
A> GA2 | 
d f c3/ A/ | 
G A G F | 
D F D C | 
F2F2 | 
G A G F | 
G/ F/D2D/ C/ | 
D E D E | 
D4 |]

@@@ Tune index: 9151
